azure-patterns/svg-chat-wrench.svg

<svg xmlns="http://www.w3.org/2000/svg" viewBox="0 0 48 31">
                                
                            
    <path fill-rule="evenodd" clip-rule="evenodd" d="M27.0345 16.0659C27.0345 21.7105 21.1132 26.2862 13.8086 26.2862C12.8648 26.2862 11.9443 26.2099 11.0564 26.0647C10.2878 25.9392 9.61018 28.3905 8.89747 28.1668C8.54733 28.0566 6.95753 29.8545 6.62336 29.7227C6.13822 29.5312 6.85157 24.7698 6.40345 24.5352C2.89127 22.6977 0.583008 19.5903 0.583008 16.0659C0.583008 10.4214 6.50431 5.8457 13.8086 5.8457C21.1132 5.8457 27.0345 10.4214 27.0345 16.0659Z" fill="#0078D4"></path>
    <path fill-rule="evenodd" clip-rule="evenodd" d="M6.8686 30.264C6.76072 30.264 6.65125 30.241 6.54752 30.1932C6.26856 30.0671 6.09557 29.798 6.09557 29.4919V24.9871C2.27251 22.9923 0 19.6933 0 16.1132C0 10.212 6.20377 5.41064 13.8291 5.41064C21.4545 5.41064 27.6579 10.212 27.6579 16.1132C27.6579 22.0143 21.4545 26.8153 13.8291 26.8153C12.9859 26.8153 12.1401 26.7563 11.3112 26.6392L7.37258 30.0731C7.22831 30.1989 7.05021 30.264 6.8686 30.264ZM13.8291 6.36816C6.73168 6.36816 0.957519 10.7396 0.957519 16.1132C0.957519 19.4038 3.13683 22.4513 6.78722 24.2648C6.94999 24.3459 7.05309 24.5125 7.05309 24.6938V29.0815L10.8484 25.772C10.9547 25.6794 11.0961 25.6379 11.2362 25.6596C12.0871 25.7911 12.9594 25.8578 13.8291 25.8578C20.9263 25.8578 26.7004 21.4868 26.7004 16.1132C26.7004 10.7396 20.9263 6.36816 13.8291 6.36816Z" fill="#0078D4"></path>
    <path fill-rule="evenodd" clip-rule="evenodd" d="M9.67023 16.293C9.67023 17.3191 8.83847 18.1509 7.81201 18.1509C6.78587 18.1509 5.9541 17.3191 5.9541 16.293C5.9541 15.2668 6.78587 14.4351 7.81201 14.4351C8.83847 14.4351 9.67023 15.2668 9.67023 16.293Z" fill="white"></path>
    <path fill-rule="evenodd" clip-rule="evenodd" d="M15.9993 16.293C15.9993 17.3191 15.1676 18.1509 14.1411 18.1509C13.115 18.1509 12.2832 17.3191 12.2832 16.293C12.2832 15.2668 13.115 14.4351 14.1411 14.4351C15.1676 14.4351 15.9993 15.2668 15.9993 16.293Z" fill="white"></path>
    <path fill-rule="evenodd" clip-rule="evenodd" d="M22.3538 16.293C22.3538 17.3191 21.5221 18.1509 20.4956 18.1509C19.4695 18.1509 18.6377 17.3191 18.6377 16.293C18.6377 15.2668 19.4695 14.4351 20.4956 14.4351C21.5221 14.4351 22.3538 15.2668 22.3538 16.293Z" fill="white"></path>
    <path fill-rule="evenodd" clip-rule="evenodd" d="M37.461 18.7279C37.461 14.1366 32.8783 10.2886 26.89 10.2666C28.5123 12.0374 29.2084 14.316 29.2084 16.6434C29.2084 20.7696 26.2136 24.36 21.7988 26.2106C23.2424 26.7528 24.8587 27.0644 26.5746 27.0644C27.52 27.0644 28.437 26.9718 29.3112 26.7985L32.6692 29.7266C32.8339 29.8699 33.0909 29.7531 33.0909 29.5348V25.4066C35.7438 23.886 37.461 21.461 37.461 18.7279Z" fill="#50E6FF"></path>
    <path fill-rule="evenodd" clip-rule="evenodd" d="M47.5792 18.1189C48.2747 19.0439 48.089 20.3585 47.1637 21.0531C46.239 21.7489 44.9253 21.5628 44.2295 20.6385L35.9093 9.57368C35.7884 9.59443 35.6671 9.61517 35.5426 9.62762C32.8836 9.88711 30.5179 7.94749 30.2587 5.29517C30.1853 4.54032 30.2957 3.81069 30.545 3.14458L32.7186 5.35581C33.5261 6.1847 34.8529 6.20321 35.6821 5.39539C36.511 4.58788 36.5292 3.26171 35.722 2.43282L33.5688 0.242975C33.8995 0.134776 34.2452 0.0584933 34.6055 0.0233842C37.2645 -0.236742 39.6299 1.70319 39.8885 4.3552C39.9864 5.35645 39.7694 6.31524 39.32 7.1352L47.5792 18.1189ZM46.0102 20.739C46.767 20.6659 47.3201 19.9915 47.2467 19.2347C47.1729 18.478 46.4992 17.9252 45.7427 17.9983C44.986 18.0726 44.4322 18.7458 44.5063 19.5022C44.58 20.259 45.2531 20.8124 46.0102 20.739Z" fill="#50E6FF"></path>
</svg>

<svg xmlns="http://www.w3.org/2000/svg" viewBox="0 0 48 31"><path fill-rule="evenodd" clip-rule="evenodd" d="M27.035 16.066c0 5.645-5.922 10.22-13.226 10.22-.944 0-1.865-.076-2.753-.221-.768-.126-1.446 2.325-2.159 2.102-.35-.11-1.94 1.688-2.274 1.556-.485-.192.229-4.953-.22-5.188-3.512-1.837-5.82-4.945-5.82-8.47 0-5.644 5.921-10.22 13.226-10.22 7.304 0 13.226 4.576 13.226 10.22z" fill="#0078D4"/><path fill-rule="evenodd" clip-rule="evenodd" d="M6.869 30.264a.766.766 0 0 1-.321-.07.761.761 0 0 1-.452-.702v-4.505C2.273 22.992 0 19.693 0 16.113 0 10.212 6.204 5.411 13.83 5.411c7.624 0 13.828 4.801 13.828 10.702s-6.204 10.702-13.829 10.702c-.843 0-1.689-.059-2.518-.176l-3.938 3.434a.764.764 0 0 1-.504.191zm6.96-23.896C6.732 6.368.958 10.74.958 16.113c0 3.29 2.179 6.338 5.83 8.152a.48.48 0 0 1 .265.429v4.387l3.795-3.309a.478.478 0 0 1 .388-.112c.851.131 1.723.198 2.593.198 7.097 0 12.871-4.371 12.871-9.745 0-5.373-5.774-9.745-12.87-9.745z" fill="#0078D4"/><path fill-rule="evenodd" clip-rule="evenodd" d="M9.67 16.293a1.858 1.858 0 1 1-3.716 0 1.858 1.858 0 0 1 3.716 0zM16 16.293a1.858 1.858 0 1 1-3.716 0 1.858 1.858 0 0 1 3.715 0zM22.354 16.293a1.858 1.858 0 1 1-3.716 0 1.858 1.858 0 0 1 3.716 0z" fill="#fff"/><path fill-rule="evenodd" clip-rule="evenodd" d="M37.461 18.728c0-4.591-4.583-8.44-10.571-8.461 1.622 1.77 2.318 4.049 2.318 6.376 0 4.127-2.994 7.717-7.41 9.568 1.444.542 3.06.853 4.777.853.945 0 1.862-.092 2.736-.265l3.358 2.928a.255.255 0 0 0 .422-.192v-4.128c2.653-1.521 4.37-3.946 4.37-6.68zM47.58 18.119a2.095 2.095 0 1 1-3.35 2.52L35.91 9.574c-.122.02-.243.041-.367.054a4.832 4.832 0 0 1-5.284-4.333 4.793 4.793 0 0 1 .286-2.15l2.174 2.21a2.096 2.096 0 0 0 3.003-2.922L33.569.243a4.83 4.83 0 0 1 6.32 4.112 4.794 4.794 0 0 1-.569 2.78l8.26 10.984zm-1.57 2.62a1.377 1.377 0 1 0-.268-2.74 1.377 1.377 0 0 0 .268 2.74z" fill="#50E6FF"/></svg>
